svg/u1f361.svg

<svg viewBox="0 0 128 128" xmlns="http://www.w3.org/2000/svg">
  <path d="M92.78,99.16l24.51,24.99c0,0,3.54,0.94,5.66-1.41c2.12-2.36,1.89-4.71,1.89-4.71L94.66,86.43 L92.78,99.16z" fill="#F3C975"/>
  <path d="M69.06,67.05c-8.9,8.57-13.84,21.41-4.12,33.11c8.83,10.63,26.11,6.63,33.85-1.77 s11.95-19.65,2.93-30.8C92.39,56.08,77.05,59.35,69.06,67.05z" fill="#919F50"/>
  <path d="M71.89,94.44c3.11-1.29,1.57-5.29,1.07-8.91c-0.49-3.62-0.03-6.87-2.67-6.7 c-2.64,0.16-4.69,2.75-4.28,8.4C66.34,91.84,69.45,95.45,71.89,94.44z" fill="#FFFFFE"/>
  <path d="M41.29,38.64c-8.04,7.3-14.42,21.05-4.97,32.55c11.35,13.8,26.37,10.13,36.64-0.26 s7.96-24.8-1.07-32.96S49.39,31.29,41.29,38.64z" fill="#FFEBCC"/>
  <path d="M42.07,49.95c-3.89,0.73-4.5,5.81-4.09,8.96c0.41,3.15,2.01,6.99,5.58,6.95s1.71-3.84,1.32-8.32 S46.15,49.18,42.07,49.95z" fill="#FFFFFE"/>
  <path d="M44.75,44.33c5.94-6.56,13.22-20.11,0.94-32.09C33.77,0.6,19.73,7.25,12.47,14.39 c-6.93,6.8-11.13,22.39-0.62,32.04S37.69,52.12,44.75,44.33z" fill="#FFA8A7"/>
  <path d="M14.87,21.73c-3.79,0.65-4.71,4.76-4.42,8.3c0.31,3.71,3.01,6.74,5.62,6.33 c3.43-0.53,1.77-3.43,1.39-8.25C17.18,24.29,18.58,21.09,14.87,21.73z" fill="#FFFFFF"/>
  <path d="M4.05,4.25c-1.57,1.26,6.93,13.36,6.93,13.36s2.6-0.37,4.33-1.98s2.23-4.58,2.23-4.58 S5.91,2.76,4.05,4.25z" fill="#F8C972"/>
</svg>

<svg viewBox="0 0 128 128" xmlns="http://www.w3.org/2000/svg">
  <defs/>
  <path d="M92.78,99.16 L117.29,124.15 C117.29,124.15 120.83,125.09 122.95,122.74 C125.07,120.38 124.84,118.03 124.84,118.03 L94.66,86.43 L92.78,99.16 Z" fill="#F3C975"/>
  <path d="M69.06,67.05 C60.16,75.62 55.22,88.46 64.94,100.16 C73.77,110.79 91.05,106.79 98.79,98.39 C106.53,89.99 110.74,78.74 101.72,67.59 C92.39,56.08 77.05,59.35 69.06,67.05 Z" fill="#919F50"/>
  <path d="M71.89,94.44 C75,93.15 73.46,89.15 72.96,85.53 C72.47,81.91 72.93,78.66 70.29,78.83 C67.65,78.99 65.6,81.58 66.01,87.23 C66.34,91.84 69.45,95.45 71.89,94.44 Z" fill="#FFFFFE"/>
  <path d="M41.29,38.64 C33.25,45.94 26.87,59.69 36.32,71.19 C47.67,84.99 62.69,81.32 72.96,70.93 C83.23,60.54 80.92,46.13 71.89,37.97 C62.86,29.81 49.39,31.29 41.29,38.64 Z" fill="#FFEBCC"/>
  <path d="M42.07,49.95 C38.18,50.68 37.57,55.76 37.98,58.91 C38.39,62.06 39.99,65.9 43.56,65.86 C47.13,65.82 45.27,62.02 44.88,57.54 C44.49,53.06 46.15,49.18 42.07,49.95 Z" fill="#FFFFFE"/>
  <path d="M44.75,44.33 C50.69,37.77 57.97,24.22 45.69,12.24 C33.77,0.6 19.73,7.25 12.47,14.39 C5.54,21.19 1.34,36.78 11.85,46.43 C22.36,56.08 37.69,52.12 44.75,44.33 Z" fill="#FFA8A7"/>
  <path d="M14.87,21.73 C11.08,22.38 10.16,26.49 10.45,30.03 C10.76,33.74 13.46,36.77 16.07,36.36 C19.5,35.83 17.84,32.93 17.46,28.11 C17.18,24.29 18.58,21.09 14.87,21.73 Z" fill="#FFFFFF"/>
  <path d="M4.05,4.25 C2.48,5.51 10.98,17.61 10.98,17.61 C10.98,17.61 13.58,17.24 15.31,15.63 C17.04,14.02 17.54,11.05 17.54,11.05 C17.54,11.05 5.91,2.76 4.05,4.25 Z" fill="#F8C972"/>
</svg>
